static/img/kroki/933a73128cecda9025738f742e1af443.svg

<?xml version="1.0" encoding="us-ascii" standalone="no"?><svg xmlns="http://www.w3.org/2000/svg" xmlns:xlink="http://www.w3.org/1999/xlink" contentStyleType="text/css" height="1085px" preserveAspectRatio="none" style="width:534px;height:1085px;" version="1.1" viewBox="0 0 534 1085" width="534px" zoomAndPan="magnify"><defs/><g><!--class aws_apigateway_endpoint_configuration--><g id="elem_aws_apigateway_endpoint_configuration"><rect codeLine="22" fill="#3D176E" height="100.3828" id="aws_apigateway_endpoint_configuration" rx="2.5" ry="2.5" style="stroke:#000D19;stroke-width:0.5;" width="384" x="75" y="978.31"/><ellipse cx="90" cy="998.2045" fill="#ADD1B2" rx="11" ry="11" style="stroke:#181818;stroke-width:1.0;"/><path d="M92.9688,1003.8452 Q92.3906,1004.142 91.75,1004.2827 Q91.1094,1004.4389 90.4063,1004.4389 Q87.9063,1004.4389 86.5781,1002.7983 Q85.2656,1001.142 85.2656,998.017 Q85.2656,994.892 86.5781,993.2358 Q87.9063,991.5795 90.4063,991.5795 Q91.1094,991.5795 91.75,991.7358 Q92.4063,991.892 92.9688,992.1889 L92.9688,994.9077 Q92.3438,994.3295 91.75,994.0639 Q91.1563,993.7827 90.5313,993.7827 Q89.1875,993.7827 88.5,994.8608 Q87.8125,995.9233 87.8125,998.017 Q87.8125,1000.1108 88.5,1001.1889 Q89.1875,1002.2514 90.5313,1002.2514 Q91.1563,1002.2514 91.75,1001.9858 Q92.3438,1001.7045 92.9688,1001.1264 L92.9688,1003.8452 Z " fill="#000000"/><text fill="#D9B8FF" font-family="Helvetica" font-size="17" lengthAdjust="spacing" textLength="342" x="109" y="1004.0898">aws_apigateway_endpoint_configuration</text><line style="stroke:#000D19;stroke-width:0.5;" x1="76" x2="458" y1="1018.0991" y2="1018.0991"/><text fill="#D9B8FF" font-family="sans-serif" font-size="14" font-weight="bold" lengthAdjust="spacing" textLength="44" x="86" y="1040.0942">types</text><text fill="#D9B8FF" font-family="sans-serif" font-size="14" lengthAdjust="spacing" textLength="58" x="130" y="1040.0942">: string[]</text><text fill="#D9B8FF" font-family="sans-serif" font-size="14" font-weight="bold" lengthAdjust="spacing" textLength="135" x="86" y="1066.3911">vpc_endpoint_ids</text><text fill="#D9B8FF" font-family="sans-serif" font-size="14" lengthAdjust="spacing" textLength="58" x="221" y="1066.3911">: string[]</text></g><!--class aws_apigateway_rest_api--><g id="elem_aws_apigateway_rest_api"><rect codeLine="26" fill="#3D176E" height="284.4609" id="aws_apigateway_rest_api" rx="2.5" ry="2.5" style="stroke:#000D19;stroke-width:0.5;" width="520" x="7" y="633.85"/><ellipse cx="150.75" cy="653.7445" fill="#ADD1B2" rx="11" ry="11" style="stroke:#181818;stroke-width:1.0;"/><path d="M153.7188,659.3852 Q153.1406,659.682 152.5,659.8227 Q151.8594,659.9789 151.1563,659.9789 Q148.6563,659.9789 147.3281,658.3383 Q146.0156,656.682 146.0156,653.557 Q146.0156,650.432 147.3281,648.7758 Q148.6563,647.1195 151.1563,647.1195 Q151.8594,647.1195 152.5,647.2758 Q153.1563,647.432 153.7188,647.7289 L153.7188,650.4477 Q153.0938,649.8695 152.5,649.6039 Q151.9063,649.3227 151.2813,649.3227 Q149.9375,649.3227 149.25,650.4008 Q148.5625,651.4633 148.5625,653.557 Q148.5625,655.6508 149.25,656.7289 Q149.9375,657.7914 151.2813,657.7914 Q151.9063,657.7914 152.5,657.5258 Q153.0938,657.2445 153.7188,656.6664 L153.7188,659.3852 Z " fill="#000000"/><text fill="#D9B8FF" font-family="Helvetica" font-size="17" lengthAdjust="spacing" textLength="214" x="176.25" y="659.6298">aws_apigateway_rest_api</text><line style="stroke:#000D19;stroke-width:0.5;" x1="8" x2="526" y1="673.6391" y2="673.6391"/><text fill="#D9B8FF" font-family="sans-serif" font-size="14" font-weight="bold" lengthAdjust="spacing" textLength="184" x="18" y="695.6342">api_binary_media_types</text><text fill="#D9B8FF" font-family="sans-serif" font-size="14" lengthAdjust="spacing" textLength="58" x="202" y="695.6342">: string[]</text><text fill="#D9B8FF" font-family="sans-serif" font-size="14" font-weight="bold" lengthAdjust="spacing" textLength="264" x="18" y="721.9311">api_disable_execute_api_endpoint</text><text fill="#D9B8FF" font-family="sans-serif" font-size="14" lengthAdjust="spacing" textLength="65" x="282" y="721.9311">: boolean</text><text fill="#D9B8FF" font-family="sans-serif" font-size="14" font-weight="bold" lengthAdjust="spacing" textLength="212" x="18" y="748.2279">api_endpoint_configuration</text><text fill="#D9B8FF" font-family="sans-serif" font-size="14" lengthAdjust="spacing" textLength="286" x="230" y="748.2279">: aws_apigateway_endpoint_configuration</text><text fill="#D9B8FF" font-family="sans-serif" font-size="14" font-weight="bold" lengthAdjust="spacing" textLength="120" x="18" y="774.5248">api_key_source</text><text fill="#D9B8FF" font-family="sans-serif" font-size="14" lengthAdjust="spacing" textLength="48" x="138" y="774.5248">: string</text><text fill="#D9B8FF" font-family="sans-serif" font-size="14" font-weight="bold" lengthAdjust="spacing" textLength="248" x="18" y="800.8217">api_minimum_compression_size</text><text fill="#D9B8FF" font-family="sans-serif" font-size="14" lengthAdjust="spacing" textLength="44" x="266" y="800.8217">: int64</text><text fill="#D9B8FF" font-family="sans-serif" font-size="14" font-weight="bold" lengthAdjust="spacing" textLength="76" x="18" y="827.1186">api_policy</text><text fill="#D9B8FF" font-family="sans-serif" font-size="14" lengthAdjust="spacing" textLength="48" x="94" y="827.1186">: string</text><text fill="#D9B8FF" font-family="sans-serif" font-size="14" font-weight="bold" lengthAdjust="spacing" textLength="89" x="18" y="853.4154">api_version</text><text fill="#D9B8FF" font-family="sans-serif" font-size="14" lengthAdjust="spacing" textLength="48" x="107" y="853.4154">: string</text><text fill="#D9B8FF" font-family="sans-serif" font-size="14" font-weight="bold" lengthAdjust="spacing" textLength="103" x="18" y="879.7123">api_warnings</text><text fill="#D9B8FF" font-family="sans-serif" font-size="14" lengthAdjust="spacing" textLength="58" x="121" y="879.7123">: string[]</text><text fill="#D9B8FF" font-family="sans-serif" font-size="14" font-weight="bold" lengthAdjust="spacing" textLength="89" x="18" y="906.0092">description</text><text fill="#D9B8FF" font-family="sans-serif" font-size="14" lengthAdjust="spacing" textLength="48" x="107" y="906.0092">: string</text></g><!--class aws_resource--><g id="elem_aws_resource"><rect codeLine="37" fill="#3D176E" height="74.0859" id="aws_resource" rx="2.5" ry="2.5" style="stroke:#000D19;stroke-width:0.5;" width="155" x="189.5" y="438.76"/><ellipse cx="204.5" cy="458.6545" fill="#ADD1B2" rx="11" ry="11" style="stroke:#181818;stroke-width:1.0;"/><path d="M207.4688,464.2952 Q206.8906,464.592 206.25,464.7327 Q205.6094,464.8889 204.9063,464.8889 Q202.4063,464.8889 201.0781,463.2483 Q199.7656,461.592 199.7656,458.467 Q199.7656,455.342 201.0781,453.6858 Q202.4063,452.0295 204.9063,452.0295 Q205.6094,452.0295 206.25,452.1858 Q206.9063,452.342 207.4688,452.6389 L207.4688,455.3577 Q206.8438,454.7795 206.25,454.5139 Q205.6563,454.2327 205.0313,454.2327 Q203.6875,454.2327 203,455.3108 Q202.3125,456.3733 202.3125,458.467 Q202.3125,460.5608 203,461.6389 Q203.6875,462.7014 205.0313,462.7014 Q205.6563,462.7014 206.25,462.4358 Q206.8438,462.1545 207.4688,461.5764 L207.4688,464.2952 Z " fill="#000000"/><text fill="#D9B8FF" font-family="Helvetica" font-size="17" lengthAdjust="spacing" textLength="113" x="223.5" y="464.5398">aws_resource</text><line style="stroke:#000D19;stroke-width:0.5;" x1="190.5" x2="343.5" y1="478.5491" y2="478.5491"/><text fill="#D9B8FF" font-family="sans-serif" font-size="14" font-weight="bold" lengthAdjust="spacing" textLength="26" x="200.5" y="500.5442">arn</text><text fill="#D9B8FF" font-family="sans-serif" font-size="14" lengthAdjust="spacing" textLength="48" x="226.5" y="500.5442">: string</text></g><!--class resource--><g id="elem_resource"><rect codeLine="40" fill="#3D176E" height="310.7578" id="resource" rx="2.5" ry="2.5" style="stroke:#000D19;stroke-width:0.5;" width="227" x="153.5" y="7"/><ellipse cx="222.25" cy="26.8945" fill="#ADD1B2" rx="11" ry="11" style="stroke:#181818;stroke-width:1.0;"/><path d="M225.2188,32.5352 Q224.6406,32.832 224,32.9727 Q223.3594,33.1289 222.6563,33.1289 Q220.1563,33.1289 218.8281,31.4883 Q217.5156,29.832 217.5156,26.707 Q217.5156,23.582 218.8281,21.9258 Q220.1563,20.2695 222.6563,20.2695 Q223.3594,20.2695 224,20.4258 Q224.6563,20.582 225.2188,20.8789 L225.2188,23.5977 Q224.5938,23.0195 224,22.7539 Q223.4063,22.4727 222.7813,22.4727 Q221.4375,22.4727 220.75,23.5508 Q220.0625,24.6133 220.0625,26.707 Q220.0625,28.8008 220.75,29.8789 Q221.4375,30.9414 222.7813,30.9414 Q223.4063,30.9414 224,30.6758 Q224.5938,30.3945 225.2188,29.8164 L225.2188,32.5352 Z " fill="#000000"/><text fill="#D9B8FF" font-family="Helvetica" font-size="17" lengthAdjust="spacing" textLength="71" x="247.75" y="32.7798">resource</text><line style="stroke:#000D19;stroke-width:0.5;" x1="154.5" x2="379.5" y1="46.7891" y2="46.7891"/><text fill="#D9B8FF" font-family="sans-serif" font-size="14" font-weight="bold" lengthAdjust="spacing" textLength="29" x="164.5" y="68.7842">age</text><text fill="#D9B8FF" font-family="sans-serif" font-size="14" lengthAdjust="spacing" textLength="66" x="193.5" y="68.7842">: duration</text><text fill="#D9B8FF" font-family="sans-serif" font-size="14" font-weight="bold" lengthAdjust="spacing" textLength="43" x="164.5" y="95.0811">atime</text><text fill="#D9B8FF" font-family="sans-serif" font-size="14" lengthAdjust="spacing" textLength="70" x="207.5" y="95.0811">: datetime</text><text fill="#D9B8FF" font-family="sans-serif" font-size="14" font-weight="bold" lengthAdjust="spacing" textLength="43" x="164.5" y="121.3779">ctime</text><text fill="#D9B8FF" font-family="sans-serif" font-size="14" lengthAdjust="spacing" textLength="70" x="207.5" y="121.3779">: datetime</text><text fill="#D9B8FF" font-family="sans-serif" font-size="14" font-weight="bold" lengthAdjust="spacing" textLength="14" x="164.5" y="147.6748">id</text><text fill="#D9B8FF" font-family="sans-serif" font-size="14" lengthAdjust="spacing" textLength="48" x="178.5" y="147.6748">: string</text><text fill="#D9B8FF" font-family="sans-serif" font-size="14" font-weight="bold" lengthAdjust="spacing" textLength="33" x="164.5" y="173.9717">kind</text><text fill="#D9B8FF" font-family="sans-serif" font-size="14" lengthAdjust="spacing" textLength="48" x="197.5" y="173.9717">: string</text><text fill="#D9B8FF" font-family="sans-serif" font-size="14" font-weight="bold" lengthAdjust="spacing" textLength="90" x="164.5" y="200.2686">last_access</text><text fill="#D9B8FF" font-family="sans-serif" font-size="14" lengthAdjust="spacing" textLength="66" x="254.5" y="200.2686">: duration</text><text fill="#D9B8FF" font-family="sans-serif" font-size="14" font-weight="bold" lengthAdjust="spacing" textLength="90" x="164.5" y="226.5654">last_update</text><text fill="#D9B8FF" font-family="sans-serif" font-size="14" lengthAdjust="spacing" textLength="66" x="254.5" y="226.5654">: duration</text><text fill="#D9B8FF" font-family="sans-serif" font-size="14" font-weight="bold" lengthAdjust="spacing" textLength="48" x="164.5" y="252.8623">mtime</text><text fill="#D9B8FF" font-family="sans-serif" font-size="14" lengthAdjust="spacing" textLength="70" x="212.5" y="252.8623">: datetime</text><text fill="#D9B8FF" font-family="sans-serif" font-size="14" font-weight="bold" lengthAdjust="spacing" textLength="43" x="164.5" y="279.1592">name</text><text fill="#D9B8FF" font-family="sans-serif" font-size="14" lengthAdjust="spacing" textLength="48" x="207.5" y="279.1592">: string</text><text fill="#D9B8FF" font-family="sans-serif" font-size="14" font-weight="bold" lengthAdjust="spacing" textLength="34" x="164.5" y="305.4561">tags</text><text fill="#D9B8FF" font-family="sans-serif" font-size="14" lengthAdjust="spacing" textLength="171" x="198.5" y="305.4561">: dictionary[string, string]</text></g><!--link aws_apigateway_rest_api to aws_apigateway_endpoint_configuration--><g id="link_aws_apigateway_rest_api_aws_apigateway_endpoint_configuration"><path codeLine="52" d="M267,918.75 C267,940 267,954.61 267,972.06 " fill="none" id="aws_apigateway_rest_api-to-aws_apigateway_endpoint_configuration" style="stroke:#FFAF37;stroke-width:2.0;"/><polygon fill="#FFAF37" points="267,978.06,271,969.06,267,973.06,263,969.06,267,978.06" style="stroke:#FFAF37;stroke-width:2.0;"/></g><!--reverse link aws_resource to aws_apigateway_rest_api--><g id="link_aws_resource_aws_apigateway_rest_api"><path codeLine="53" d="M267,531.08 C267,561.51 267,589.04 267,633.64 " fill="none" id="aws_resource-backto-aws_apigateway_rest_api" style="stroke:#FFAF37;stroke-width:2.0;"/><polygon fill="none" points="267,513.08,261,531.08,273,531.08,267,513.08" style="stroke:#FFAF37;stroke-width:2.0;"/></g><!--reverse link resource to aws_resource--><g id="link_resource_aws_resource"><path codeLine="54" d="M267,336.18 C267,381.21 267,408.35 267,438.52 " fill="none" id="resource-backto-aws_resource" style="stroke:#FFAF37;stroke-width:2.0;"/><polygon fill="none" points="267,318.18,261,336.18,273,336.18,267,318.18" style="stroke:#FFAF37;stroke-width:2.0;"/></g><!--SRC=[ZPHDRzim38Rl-HK6UWjc86ctfXc60bs0ORiKmxfRKHYqH2T4BCcGv7ZUntyV5RkjlzBs59jyIBvyJMH74YDKXQyZXIf5wsPkJxe02ogwiTPK6vCR6vrb6MGNgs7oYz7-LU0M54PVCJ-W9m53ukUEn5wZSz5v9_KPn7vhJQbbqzvRq8vJg7s7skJWt8ttbjBIOqUCNATNMJOaXqtFBkHoTOaZp5Y9jaKMYuLSheV8gwDUtFk9kAFV62sxfjqQZoEPen57waMLWUY872twc3-fyJj8INeRVUZ4VZIQh4RRYz_jG9egq1dahZl6URHeV5tWPhGLhgzajfg4lvs2HN0kWiebKD0MF5PG9wXbOKZxH1YTqRQquCdewCziFW_Dt7p-aNjRrdV_mB538PvBIFRJ_wP7M7G-l1-Ryc-IaWPR9mebGJ8r9K2I7AGv9lWB1TzdQF0qEU2fCJc2RkdfDGBtfdtRBdki4sTAA_1PK9jIf4cLYijKmGivBaeSNs00kTtb-vOhJ4wY7fKV-C-X5TIBLs0rlmqDaEY4fSBtIxh-ieQZqCPKEuNraUrHgkmix4arCROcF7DCJCH8zbJpnVK3F8i_hn1ioc32CLCMeTSWeoRcQ51zspqqlaWIeOnFvhx9lMkPS76dRYsEhz_uwNjkVleRn_6f0vvDO8-X_m00]--></g></svg>

<svg xmlns="http://www.w3.org/2000/svg" width="534" height="1085" viewBox="0 0 534 1085"><rect width="384" height="100.383" x="75" y="978.31" fill="#3D176E" rx="2.5" ry="2.5" style="stroke:#000d19;stroke-width:.5"/><circle cx="90" cy="998.205" r="11" fill="#ADD1B2" style="stroke:#181818;stroke-width:1"/><path d="M92.969 1003.845q-.578.297-1.219.438-.64.156-1.344.156-2.5 0-3.828-1.64-1.312-1.657-1.312-4.782t1.312-4.781q1.328-1.656 3.828-1.656.703 0 1.344.156.656.156 1.219.453v2.719q-.625-.578-1.219-.844-.594-.281-1.219-.281-1.344 0-2.031 1.078-.687 1.062-.687 3.156t.687 3.172q.688 1.062 2.031 1.062.625 0 1.219-.265.594-.281 1.219-.86z"/><text x="109" y="1004.09" fill="#D9B8FF" font-family="Helvetica" font-size="17" textLength="342">aws_apigateway_endpoint_configuration</text><path d="M76 1018.099h382" style="stroke:#000d19;stroke-width:.5"/><text x="86" y="1040.094" fill="#D9B8FF" font-family="sans-serif" font-size="14" font-weight="bold" textLength="44">types</text><text x="130" y="1040.094" fill="#D9B8FF" font-family="sans-serif" font-size="14" textLength="58">: string[]</text><text x="86" y="1066.391" fill="#D9B8FF" font-family="sans-serif" font-size="14" font-weight="bold" textLength="135">vpc_endpoint_ids</text><text x="221" y="1066.391" fill="#D9B8FF" font-family="sans-serif" font-size="14" textLength="58">: string[]</text><rect width="520" height="284.461" x="7" y="633.85" fill="#3D176E" rx="2.5" ry="2.5" style="stroke:#000d19;stroke-width:.5"/><circle cx="150.75" cy="653.745" r="11" fill="#ADD1B2" style="stroke:#181818;stroke-width:1"/><path d="M153.719 659.385q-.578.297-1.219.438-.64.156-1.344.156-2.5 0-3.828-1.64-1.312-1.657-1.312-4.782t1.312-4.781q1.328-1.656 3.828-1.656.703 0 1.344.156.656.156 1.219.453v2.719q-.625-.578-1.219-.844-.594-.281-1.219-.281-1.344 0-2.031 1.078-.687 1.062-.687 3.156t.687 3.172q.688 1.062 2.031 1.062.625 0 1.219-.265.594-.281 1.219-.86z"/><text x="176.25" y="659.63" fill="#D9B8FF" font-family="Helvetica" font-size="17" textLength="214">aws_apigateway_rest_api</text><path d="M8 673.639h518" style="stroke:#000d19;stroke-width:.5"/><text x="18" y="695.634" fill="#D9B8FF" font-family="sans-serif" font-size="14" font-weight="bold" textLength="184">api_binary_media_types</text><text x="202" y="695.634" fill="#D9B8FF" font-family="sans-serif" font-size="14" textLength="58">: string[]</text><text x="18" y="721.931" fill="#D9B8FF" font-family="sans-serif" font-size="14" font-weight="bold" textLength="264">api_disable_execute_api_endpoint</text><text x="282" y="721.931" fill="#D9B8FF" font-family="sans-serif" font-size="14" textLength="65">: boolean</text><text x="18" y="748.228" fill="#D9B8FF" font-family="sans-serif" font-size="14" font-weight="bold" textLength="212">api_endpoint_configuration</text><text x="230" y="748.228" fill="#D9B8FF" font-family="sans-serif" font-size="14" textLength="286">: aws_apigateway_endpoint_configuration</text><text x="18" y="774.525" fill="#D9B8FF" font-family="sans-serif" font-size="14" font-weight="bold" textLength="120">api_key_source</text><text x="138" y="774.525" fill="#D9B8FF" font-family="sans-serif" font-size="14" textLength="48">: string</text><text x="18" y="800.822" fill="#D9B8FF" font-family="sans-serif" font-size="14" font-weight="bold" textLength="248">api_minimum_compression_size</text><text x="266" y="800.822" fill="#D9B8FF" font-family="sans-serif" font-size="14" textLength="44">: int64</text><text x="18" y="827.119" fill="#D9B8FF" font-family="sans-serif" font-size="14" font-weight="bold" textLength="76">api_policy</text><text x="94" y="827.119" fill="#D9B8FF" font-family="sans-serif" font-size="14" textLength="48">: string</text><text x="18" y="853.415" fill="#D9B8FF" font-family="sans-serif" font-size="14" font-weight="bold" textLength="89">api_version</text><text x="107" y="853.415" fill="#D9B8FF" font-family="sans-serif" font-size="14" textLength="48">: string</text><text x="18" y="879.712" fill="#D9B8FF" font-family="sans-serif" font-size="14" font-weight="bold" textLength="103">api_warnings</text><text x="121" y="879.712" fill="#D9B8FF" font-family="sans-serif" font-size="14" textLength="58">: string[]</text><text x="18" y="906.009" fill="#D9B8FF" font-family="sans-serif" font-size="14" font-weight="bold" textLength="89">description</text><text x="107" y="906.009" fill="#D9B8FF" font-family="sans-serif" font-size="14" textLength="48">: string</text><rect width="155" height="74.086" x="189.5" y="438.76" fill="#3D176E" rx="2.5" ry="2.5" style="stroke:#000d19;stroke-width:.5"/><circle cx="204.5" cy="458.654" r="11" fill="#ADD1B2" style="stroke:#181818;stroke-width:1"/><path d="M207.469 464.295q-.578.297-1.219.438-.64.156-1.344.156-2.5 0-3.828-1.64-1.312-1.657-1.312-4.782t1.312-4.781q1.328-1.656 3.828-1.656.703 0 1.344.156.656.156 1.219.453v2.719q-.625-.579-1.219-.844-.594-.281-1.219-.281-1.344 0-2.031 1.078-.687 1.062-.687 3.156t.687 3.172q.688 1.062 2.031 1.062.625 0 1.219-.265.594-.281 1.219-.86z"/><text x="223.5" y="464.54" fill="#D9B8FF" font-family="Helvetica" font-size="17" textLength="113">aws_resource</text><path d="M190.5 478.549h153" style="stroke:#000d19;stroke-width:.5"/><text x="200.5" y="500.544" fill="#D9B8FF" font-family="sans-serif" font-size="14" font-weight="bold" textLength="26">arn</text><text x="226.5" y="500.544" fill="#D9B8FF" font-family="sans-serif" font-size="14" textLength="48">: string</text><rect width="227" height="310.758" x="153.5" y="7" fill="#3D176E" rx="2.5" ry="2.5" style="stroke:#000d19;stroke-width:.5"/><circle cx="222.25" cy="26.895" r="11" fill="#ADD1B2" style="stroke:#181818;stroke-width:1"/><path d="M225.219 32.535q-.578.297-1.219.438-.64.156-1.344.156-2.5 0-3.828-1.64-1.312-1.657-1.312-4.782t1.312-4.781q1.328-1.656 3.828-1.656.703 0 1.344.156.656.156 1.219.453v2.719q-.625-.578-1.219-.844-.594-.281-1.219-.281-1.344 0-2.031 1.078-.687 1.062-.687 3.156t.687 3.172q.688 1.062 2.031 1.062.625 0 1.219-.265.594-.281 1.219-.86z"/><text x="247.75" y="32.78" fill="#D9B8FF" font-family="Helvetica" font-size="17" textLength="71">resource</text><path d="M154.5 46.789h225" style="stroke:#000d19;stroke-width:.5"/><text x="164.5" y="68.784" fill="#D9B8FF" font-family="sans-serif" font-size="14" font-weight="bold" textLength="29">age</text><text x="193.5" y="68.784" fill="#D9B8FF" font-family="sans-serif" font-size="14" textLength="66">: duration</text><text x="164.5" y="95.081" fill="#D9B8FF" font-family="sans-serif" font-size="14" font-weight="bold" textLength="43">atime</text><text x="207.5" y="95.081" fill="#D9B8FF" font-family="sans-serif" font-size="14" textLength="70">: datetime</text><text x="164.5" y="121.378" fill="#D9B8FF" font-family="sans-serif" font-size="14" font-weight="bold" textLength="43">ctime</text><text x="207.5" y="121.378" fill="#D9B8FF" font-family="sans-serif" font-size="14" textLength="70">: datetime</text><text x="164.5" y="147.675" fill="#D9B8FF" font-family="sans-serif" font-size="14" font-weight="bold" textLength="14">id</text><text x="178.5" y="147.675" fill="#D9B8FF" font-family="sans-serif" font-size="14" textLength="48">: string</text><text x="164.5" y="173.972" fill="#D9B8FF" font-family="sans-serif" font-size="14" font-weight="bold" textLength="33">kind</text><text x="197.5" y="173.972" fill="#D9B8FF" font-family="sans-serif" font-size="14" textLength="48">: string</text><text x="164.5" y="200.269" fill="#D9B8FF" font-family="sans-serif" font-size="14" font-weight="bold" textLength="90">last_access</text><text x="254.5" y="200.269" fill="#D9B8FF" font-family="sans-serif" font-size="14" textLength="66">: duration</text><text x="164.5" y="226.565" fill="#D9B8FF" font-family="sans-serif" font-size="14" font-weight="bold" textLength="90">last_update</text><text x="254.5" y="226.565" fill="#D9B8FF" font-family="sans-serif" font-size="14" textLength="66">: duration</text><text x="164.5" y="252.862" fill="#D9B8FF" font-family="sans-serif" font-size="14" font-weight="bold" textLength="48">mtime</text><text x="212.5" y="252.862" fill="#D9B8FF" font-family="sans-serif" font-size="14" textLength="70">: datetime</text><text x="164.5" y="279.159" fill="#D9B8FF" font-family="sans-serif" font-size="14" font-weight="bold" textLength="43">name</text><text x="207.5" y="279.159" fill="#D9B8FF" font-family="sans-serif" font-size="14" textLength="48">: string</text><text x="164.5" y="305.456" fill="#D9B8FF" font-family="sans-serif" font-size="14" font-weight="bold" textLength="34">tags</text><text x="198.5" y="305.456" fill="#D9B8FF" font-family="sans-serif" font-size="14" textLength="171">: dictionary[string, string]</text><path fill="none" d="M267 918.75v53.31" style="stroke:#ffaf37;stroke-width:2"/><path fill="#FFAF37" d="m267 978.06 4-9-4 4-4-4z" style="stroke:#ffaf37;stroke-width:2"/><path fill="none" d="M267 531.08v102.56m0-120.56-6 18h12zm0-176.9v102.34m0-120.34-6 18h12z" style="stroke:#ffaf37;stroke-width:2"/></svg>
